img/logos/crossbrowsertesting.svg

<?xml version="1.0" encoding="UTF-8" standalone="no"?>
<svg width="256px" height="256px" viewBox="0 0 256 256" version="1.1" xmlns="http://www.w3.org/2000/svg" xmlns:xlink="http://www.w3.org/1999/xlink" preserveAspectRatio="xMinYMin meet">
	<g>
		<path d="M80.8402335,194.493967 C62.1379481,163.501494 51.8417912,133.209033 47.0497178,106.535626 C45.9527013,100.443533 45.1456888,94.5364423 44.5906806,88.8563559 C43.4356626,77.010175 43.3726619,66.1350088 44.0976727,56.549863 L44.0976727,56.5408627 C43.4466628,57.2508736 42.8056531,57.9668845 42.1686436,58.6808953 C42.064642,58.7998974 41.95364,58.9158987 41.8496385,59.0349008 C41.1946287,59.7699119 40.5466187,60.5109236 39.9026088,61.2529351 C39.787607,61.3849369 39.6726053,61.5179385 39.5546037,61.6499408 C37.3905706,64.1529791 35.2765383,66.6900175 33.228507,69.269057 C19.3622954,86.7113231 8.21412536,105.872616 0,126.225926 C0.68901051,127.928952 1.40702147,129.618978 2.12903249,131.302004 C10.1021541,149.773286 20.5173131,167.200551 33.227507,183.183795 C35.8975478,186.546846 38.6715901,189.845897 41.5416339,193.078947 L59.2849049,194.412967 C64.1079783,194.773972 71.4790908,195.034976 80.8402335,194.493967" fill="#276691"></path>
		<path d="M106.78763,208.603183 C100.703537,209.7032 94.7994467,210.521212 89.1213599,211.082221 C77.3101798,212.250239 66.4670142,212.33024 56.8898684,211.629229 C56.7748664,211.621229 56.6598648,211.617229 56.5408627,211.606229 C60.6749261,215.395287 64.9189906,219.016342 69.2700573,222.477395 C86.7103233,236.340606 105.872615,247.485776 126.226926,255.700902 C128.012953,254.979891 129.789981,254.229879 131.553008,253.464868 C149.930288,245.501746 167.274553,235.126588 183.184795,222.478395 C186.598847,219.761353 189.950898,216.94731 193.227949,214.031266 L194.565969,196.266995 C194.926974,191.455922 195.186979,184.10481 194.64597,174.762667 C163.700498,193.471952 133.442036,203.78711 106.78763,208.603183" fill="#F78921"></path>
		<path d="M174.762667,56.8386296 C193.457952,87.7781017 203.761109,118.021563 208.575183,144.664969 C209.673199,150.759062 210.487212,156.663153 211.046221,162.34324 C212.212238,174.128419 212.290239,184.952584 211.595229,194.51173 C211.583228,194.634732 211.575228,194.755734 211.568228,194.878736 C215.357286,190.749673 218.984341,186.499608 222.435394,182.149541 C236.304606,164.708275 247.449776,145.548983 255.662901,125.192672 C254.992891,123.525647 254.29388,121.872622 253.582869,120.222596 C245.602748,101.714314 235.168588,84.2480475 222.436395,68.2348034 C219.747353,64.8507516 216.95631,61.5307014 214.073266,58.2796511 L196.154993,56.9306309 C191.35792,56.5706254 184.050808,56.3146218 174.762667,56.8386296" fill="#CC2128"></path>
		<path d="M181.997635,33.223507 C164.558369,19.3602954 145.392076,8.21512537 125.036766,0 C123.384741,0.667010178 121.744716,1.36202078 120.107691,2.06503151 C101.582408,10.0481534 84.1061414,20.4843126 68.0758965,33.223507 C64.7498458,35.8695473 61.4907966,38.6115892 58.2917475,41.4506324 L56.9287266,59.5129085 C56.5737215,64.2879812 56.3137173,71.5660923 56.8367254,80.8102329 C87.7651972,62.1469484 118.000658,51.8637913 144.629065,47.0687183 C150.726158,45.9727014 156.628248,45.1576889 162.310335,44.6006804 C174.117515,43.442663 184.96068,43.3726619 194.530826,44.0836727 C194.596827,44.0876729 194.659828,44.0896728 194.721829,44.0966728 C190.589766,40.306615 186.344701,36.6835598 181.997635,33.223507" fill="#146E39"></path>
	</g>
</svg>

<svg width="256" height="256" viewBox="0 0 256 256" xmlns="http://www.w3.org/2000/svg" preserveAspectRatio="xMinYMin meet"><path d="M80.84 194.494C62.138 163.5 51.842 133.21 47.05 106.536c-1.097-6.092-1.904-12-2.46-17.68-1.154-11.846-1.217-22.72-.492-32.306v-.01c-.65.71-1.292 1.427-1.93 2.14-.103.12-.214.236-.318.355-.655.735-1.303 1.476-1.947 2.218-.115.132-.23.265-.348.397-2.164 2.503-4.278 5.04-6.326 7.62C19.36 86.71 8.213 105.872 0 126.225c.69 1.703 1.407 3.393 2.13 5.076 7.972 18.47 18.387 35.9 31.098 51.882 2.67 3.363 5.444 6.662 8.314 9.895l17.743 1.333c4.823.36 12.194.622 21.555.08" fill="#276691"/><path d="M106.788 208.603c-6.084 1.1-11.99 1.918-17.667 2.48-11.81 1.167-22.653 1.247-32.23.546-.115-.01-.23-.013-.35-.024 4.135 3.79 8.38 7.41 12.73 10.87 17.44 13.865 36.603 25.01 56.957 33.225 1.786-.72 3.563-1.47 5.326-2.235 18.377-7.963 35.722-18.338 51.632-30.987 3.414-2.717 6.766-5.53 10.043-8.447l1.338-17.763c.36-4.81.62-12.162.08-21.504-30.946 18.71-61.204 29.024-87.858 33.84" fill="#F78921"/><path d="M174.763 56.84c18.695 30.938 28.998 61.182 33.812 87.825 1.098 6.094 1.912 11.998 2.47 17.678 1.167 11.785 1.245 22.61.55 32.17-.012.122-.02.243-.027.366 3.79-4.13 7.416-8.38 10.867-12.73 13.87-17.442 25.015-36.6 33.228-56.957-.67-1.667-1.37-3.32-2.08-4.97-7.98-18.51-18.414-35.975-31.147-51.988-2.69-3.384-5.48-6.704-8.363-9.955l-17.918-1.35c-4.797-.36-12.104-.615-21.392-.09" fill="#CC2128"/><path d="M181.998 33.224C164.558 19.36 145.392 8.214 125.038 0c-1.653.667-3.293 1.362-4.93 2.065-18.526 7.983-36.002 18.42-52.032 31.16-3.326 2.645-6.585 5.387-9.784 8.226L56.93 59.514c-.356 4.775-.616 12.053-.093 21.297C87.765 62.147 118 51.864 144.63 47.07c6.096-1.097 11.998-1.912 17.68-2.47 11.808-1.157 22.65-1.227 32.22-.516.067.004.13.006.192.013-4.132-3.79-8.377-7.413-12.724-10.873" fill="#146E39"/></svg>
